src/components/00-materials/images-raw/Radio.svg

<svg width="96" height="96" viewBox="0 0 96 96" fill="none" xmlns="http://www.w3.org/2000/svg">
<path d="M78.86 34.8403H17.14C10.4353 34.8403 5 40.2756 5 46.9803V68.9103C5 75.6151 10.4353 81.0503 17.14 81.0503H78.86C85.5647 81.0503 91 75.6151 91 68.9103V46.9803C91 40.2756 85.5647 34.8403 78.86 34.8403Z" stroke="#00008F" stroke-width="2" stroke-linecap="round" stroke-linejoin="round"/>
<path d="M29.95 34.8402L58.18 14.9502" stroke="#00008F" stroke-width="2" stroke-linecap="round" stroke-linejoin="round"/>
<path d="M69.82 69.5004C76.1989 69.5004 81.37 64.3293 81.37 57.9504C81.37 51.5715 76.1989 46.4004 69.82 46.4004C63.4411 46.4004 58.27 51.5715 58.27 57.9504C58.27 64.3293 63.4411 69.5004 69.82 69.5004Z" stroke="#00008F" stroke-width="2" stroke-linecap="round" stroke-linejoin="round"/>
<path d="M19.76 67.5703H44.15M19.76 48.3203H44.15H19.76ZM19.76 57.9503H44.15H19.76Z" stroke="#00008F" stroke-width="2" stroke-linecap="round" stroke-linejoin="round"/>
</svg>

<svg width="96" height="96" viewBox="0 0 96 96" fill="none" xmlns="http://www.w3.org/2000/svg"><path d="M78.86 34.84H17.14C10.435 34.84 5 40.276 5 46.98v21.93c0 6.705 5.435 12.14 12.14 12.14h61.72c6.705 0 12.14-5.435 12.14-12.14V46.98c0-6.704-5.435-12.14-12.14-12.14zM29.95 34.84l28.23-19.89" stroke="#00008F" stroke-width="2" stroke-linecap="round" stroke-linejoin="round"/><path d="M69.82 69.5c6.379 0 11.55-5.17 11.55-11.55 0-6.379-5.171-11.55-11.55-11.55-6.379 0-11.55 5.172-11.55 11.55 0 6.38 5.171 11.55 11.55 11.55zM19.76 67.57h24.39M19.76 48.32h24.39-24.39zm0 9.63h24.39-24.39z" stroke="#00008F" stroke-width="2" stroke-linecap="round" stroke-linejoin="round"/></svg>
